X:1
T:Ladywell, CMD
T:Ladywell, CMD
T:William H. Ferguson, 1919
T:Public Domain Courtesy of the Cyber Hymnal™
C:William H. Ferguson, 1919
Z:Public Domain
Z:Courtesy of the Cyber Hymnal™
%%score ( 1 2 ) ( 3 4 )
L:1/8
Q:1/4=180
M:none
K:Ab
V:1 treble 
V:2 treble 
V:3 bass 
V:4 bass 
V:1
 [CE]4 | A4 [FB]4 [Ec]4 [_Ge]4 | d4 [Ac]4 B4 (A2 B2) | (c2 B2) A4 [CE]4 [B,D]4 | [A,C]12 [CE]4 x2 | %5
 A4 [FB]4 [=Ec]4 [CG]4 | [C=E]4 =D4 [CE]4 C4 | F4 ([CF]2 [=EG]2) A4 [=DB]4 | [EB]12 [DE]4 | %9
 [CEc]4 [=Ec]4 c4 ([GA]2 [FB]2) | c4 (B2 A2) [GB]4 (B2 c2) | [Bd]4 [_Gc]4 [FB]4 [F=A]4 | %12
 [FB]12 [B,E]4 | [EA]4 [DB]4 [Cc]4 ([_Ge]2 [Fd]2) | [=Ec]4 ([FB]2 [Gc]2) [FA]4 (F2 _E2) | %15
 [EA]4 (e2 d2) [Ac]4 [GB]4 | [EA]12 |] %17
V:2
 x4 | (C2 _G2) x12 | (F2 G2) x2 (A2 G2) E4 x2 | E4 (E2 F2) x8 | x18 | (C2 G2) x12 | %6
 x4 (C2 =B,2) x2 C4 x2 | (C2 =D2) x2 (F2 _E2) x6 | x16 | x8 (F2 A2) x4 | (A2 G2) F4 x2 _G4 x2 | %11
 x16 | x16 | x16 | x12 D4 | x4 A4 x8 | x12 |] %17
V:3
 A,4 | A,4 (A,2 G,2) [C,A,]4 [=A,,C]4 | [B,,D]4 ([C,E]2 [=D,F]2) [E,B,]4 ([C,F,]2 [B,,G,]2) | %3
 ([A,,A,]2 [B,,G,]2) A,4 [E,A,]4 (A,2 G,2) | [A,,E,A,]12 A,4 G,2 | A,4 (A,2 F,2) G,4 [=E,G,]4 | %6
 G,4 [G,,G,]4 [C,G,]4 C4 | ([A,C]2 B,2) C4 [F,C]4 (B,2 A,2) | [E,G,]12 [E,G,]4 | %9
 [A,,A,]4 [G,B,]4 [F,A,]4 ([E,C]2 [D,D]2) | [C,E]4 ([D,D]2 [F,C]2) [E,E]4 [E,E]4 | %11
 [B,,F]4 [E,E]4 [G,D]4 (D2 F2) | [B,,D]12 G,4 | (A,2 E,2) (F,2 G,2) [A,,A,]4 ([=A,,C]2 [B,,B,]2) | %14
 (A,2 G,2) ([=D,F,]2 [=E,C]2) [F,C]4 [B,,G,]4 | [C,A,]4 (A,2 B,2) (C2 D2) (E2 D2) | [A,,C]12 |] %17
V:4
 (A,2 G,2) | (F,2 E,2) D,4 x8 | x16 | x4 (C,2 D,2) x2 E,4 x2 | x12 A,2 x4 | %5
 (F,2 =E,2) D,4 (C,2 =D,2) x4 | G,4 x4 (C2 B,2) x4 | x2 B,2 (A,2 G,2) x2 B,,4 x2 | x16 | x16 | %10
 x16 | x12 G,4 | x12 (E,2 D,2) | C,4 B,,4 x8 | C,4 x12 | x4 F,4 E,4 E,4 | x12 |] %17

